X: 1964
T: Yangın Olur Biz Yangına Gideriz
C: (Anonim)
O: Turkey
F: http://compmusic.upf.edu/node/140
N: ussak--turku--aksak--yangin_olur--
N: makam= ussak
N: form= turku
N: usul= aksak = 9/8
M: 9/8
L: 1/16
K: C _2/4B   
Q: 1/4=216
%%MIDI tuningsystem comma53
G2AA A2c2 B2c2 A4 G2 | A4B4d4c4B2  | \
w:  ARANAĞME  |   | 
c2B2 B2A2 A8-A2 | G2 AAA2 c2B2 c2A4G2  | 
w:   |  ARANAĞME  | 
A4 B4 d4 c4 B2 | c2 B2B2 A2A8-A2  | A6e2 e4 e2d2 c2 | \
w:   |   |  Yan gın_ o lur   | 
d4e4f2 g2e2 d2c2  | 
w:  biz  yan gı *  na   | 
c2B2 B2A2 A8-A2 | A6 e2e4e2 d2c2  | d4 e4 f2g2 e2d2 c2 | \
w:  gi *  de *  riz    |  Yan gın_ o lur   |  biz  yan gı *  na   | 
c2 B2B2 A2A8-A2  | 
w:  gi *  de *  riz    | 
A6c2 B2c2 A4 G2 | A4B4d4c4B2  | c2B2 B2A2 A8-A2 | \
w:  Düz_ o va *  da   |  kek lik  gi bi   |  se *  ke *  riz    | 
A6 c2B2 c2A4G2  | 
w:  Düz_ o va *  da   | 
A4 B4 d4 c4 B2 | c2 B2B2 A2A8-A2  | A6e2 e4 e2d2 c2 | \
w:  kek lik  gi bi   |  se *  ke *  riz    |  Yo kuş lar da   | 
d4e4f2 g2e2 d2c2  | 
w:  şa hin  gi *  bi   | 
c2B2 B2A2 A8-A2 | A6 e2e4e2 d2c2  | d4 e4 f2g2 e2d2 c2 | \
w:  u *  ça *  rız    |  Yo kuş lar da   |  şa hin  gi *  bi   | 
c2 B2B2 A2A8-A2  | 
w:  u *  ça *  rız    | 
A2A2 A2c2 B2c2 A4 G2 | A4B4d4c4B2  | \
w:  San dık  san dık lar_ *  i  |  çin de  çok  şâ  | 
c2B2 B2A2 A8-A2 | A6 c2B2 c2A4G2  | 
w:  nı *  mız  *  var    |  Haz ret_ i  *  mev  | 
A4 B4 d4 c4 B2 | c2 B2B2 A2A8-A2  | A2A2 A2c2 B2c2 A4 G2 | \
w:  lâ ya  yal var  |  ma *  mız  *  var    |  San dık  san dık lar_ *  i  | 
A4B4d4c4B2  | 
w:  çin de  çok  şâ  | 
c2B2 B2A2 A8-A2 | A6 c2B2 c2A4G2  | A4 B4 d4 c4 B2 | \
w:  nı *  mız  *  var    |  Haz ret_ i  *  mev  |  lâ ya  yal var  | 
c2 B2B2 A2A8-A2  | 
w:  ma *  mız  *  var    | 
|


